X: 3
T: Good For the Tongue
I: RJ R-147 A reel
M: C|
%D:1826
B: James Alexander "Alexander's 50 New Scotch & Irish Reels & Hornpipes" London, c.1826
B: Elias Howe "The Musician's Companion" Part 1 1842 p.44
Z: Transcribed to abc by Debby Knight
R: hornpipe
K: A
|:::\
"A"ABcd ecAe | "D"fA"E"gA "A"aAAA | "D"FAAA "A"EAAB |\
[1,3 "Bm"cdBG "E"AGFE :|[2,4 "E"cdBG "A"A4 :|
|:::\
"A"eAAA eAAA | "D"aAfA "A"eAAA | "D"aAfA "A"eAAB |\
[1,3 "Bm"cdBG "E"AGFE :|[2,4 "E"cdBG "A"A4 :|

